svg/hibernate.svg

<?xml version="1.0" encoding="UTF-8"?>
<svg xmlns="http://www.w3.org/2000/svg" xmlns:xlink="http://www.w3.org/1999/xlink" width="32" height="32" viewBox="0 0 32 32">
<path fill-rule="nonzero" fill="rgb(0%, 0%, 0%)" fill-opacity="1" d="M 16 1.28125 C 7.882812 1.28125 1.28125 7.882812 1.28125 16 C 1.28125 24.117188 7.882812 30.71875 16 30.71875 C 24.117188 30.71875 30.71875 24.117188 30.71875 16 C 30.71875 7.882812 24.117188 1.28125 16 1.28125 M 16.640625 23.039062 C 16.640625 23.207031 16.574219 23.371094 16.453125 23.492188 C 16.269531 23.671875 15.996094 23.726562 15.757812 23.628906 C 15.519531 23.53125 15.359375 23.296875 15.359375 23.039062 L 15.359375 8.960938 C 15.359375 8.789062 15.425781 8.628906 15.546875 8.507812 C 15.730469 8.324219 16.007812 8.269531 16.246094 8.371094 C 16.484375 8.46875 16.640625 8.703125 16.640625 8.960938 Z M 16.640625 23.039062 "/>
</svg>

<svg role="img" viewBox="0 0 32 32" height="32" width="32" xmlns="http://www.w3.org/2000/svg"><path d="M16 1.281C7.883 1.281 1.281 7.883 1.281 16c0 8.117 6.602 14.719 14.719 14.719 8.117 0 14.719-6.602 14.719-14.719 0-8.117-6.602-14.719-14.719-14.719m.64 21.758a.642.642 0 0 1-.187.453.645.645 0 0 1-.695.137.64.64 0 0 1-.399-.59V8.961c0-.172.067-.332.188-.453a.636.636 0 0 1 .7-.137.638.638 0 0 1 .394.59Zm0 0"/></svg>
